icons/op-settings-display-24.svg

<svg width="24" height="24" viewBox="0 0 24 24" fill="none" xmlns="http://www.w3.org/2000/svg">
<path d="M11.368 4C11.1136 4 10.8696 4.1052 10.6898 4.29246C10.5099 4.47972 10.4089 4.73369 10.4089 4.99851C10.4089 5.26334 10.5099 5.51731 10.6898 5.70457C10.8696 5.89183 11.1136 5.99703 11.368 5.99703H13.6059V6.99687C13.6059 7.50944 13.4819 7.90086 13.3156 8.13518C13.1737 8.33621 12.9793 8.46402 12.657 8.46402C12.4026 8.46402 12.1587 8.56922 11.9788 8.75648C11.799 8.94374 11.6979 9.19771 11.6979 9.46253C11.6979 9.72736 11.799 9.98133 11.9788 10.1686C12.1587 10.3558 12.4026 10.461 12.657 10.461C13.0858 10.4696 13.5103 10.3701 13.8942 10.1709C14.2781 9.97179 14.61 9.67897 14.8617 9.31742C15.331 8.65174 15.5241 7.81033 15.5241 6.99687V4.99851C15.5241 4.73369 15.4231 4.47972 15.2432 4.29246C15.0633 4.1052 14.8194 4 14.565 4H11.368ZM10.0227 7.62793C9.95217 7.44127 9.82931 7.28103 9.6701 7.16809C9.51089 7.05515 9.3227 6.99474 9.13004 6.99474C8.93738 6.99474 8.74919 7.05515 8.58997 7.16809C8.43076 7.28103 8.30791 7.44127 8.23742 7.62793L4.07615 18.6116C4.02616 18.7343 4.00027 18.8662 4 18.9994C3.99974 19.1327 4.02511 19.2647 4.07461 19.3876C4.12411 19.5105 4.19675 19.6219 4.28824 19.7151C4.37973 19.8083 4.48823 19.8815 4.60732 19.9304C4.72642 19.9793 4.85371 20.0029 4.9817 19.9997C5.10968 19.9966 5.23577 19.9668 5.35252 19.9121C5.46928 19.8575 5.57434 19.779 5.66151 19.6814C5.74868 19.5838 5.81621 19.469 5.8601 19.3438L6.88187 16.6492H11.3744L12.3936 19.3438C12.4869 19.5903 12.6703 19.7881 12.9037 19.8937C13.137 19.9993 13.4011 20.0041 13.6379 19.907C13.8746 19.8099 14.0646 19.6189 14.166 19.3759C14.2675 19.133 14.2721 18.858 14.1788 18.6116L10.0227 7.62793ZM10.6186 14.6521H7.63894L9.13004 10.7167L10.6186 14.6521ZM17.7621 4C18.0164 4 18.2604 4.1052 18.4403 4.29246C18.6201 4.47972 18.7212 4.73369 18.7212 4.99851V7.99139H19.0409C19.2953 7.99139 19.5392 8.09659 19.7191 8.28385C19.899 8.47111 20 8.72508 20 8.98991C20 9.25473 19.899 9.5087 19.7191 9.69596C19.5392 9.88322 19.2953 9.98842 19.0409 9.98842H18.7212V14.9823C18.7212 15.2471 18.6201 15.5011 18.4403 15.6884C18.2604 15.8756 18.0164 15.9808 17.7621 15.9808C17.5077 15.9808 17.2637 15.8756 17.0839 15.6884C16.904 15.5011 16.803 15.2471 16.803 14.9823V4.99851C16.803 4.73369 16.904 4.47972 17.0839 4.29246C17.2637 4.1052 17.5077 4 17.7621 4Z" fill="black"/>
</svg>

<svg xmlns="http://www.w3.org/2000/svg" width="24" height="24" viewBox="0 0 24 24"><path d="M11.368 4a.941.941 0 0 0-.678.292c-.18.188-.281.442-.281.707 0 .264.101.518.281.706.18.187.424.292.678.292h2.238v1c0 .512-.124.904-.29 1.138-.142.201-.337.329-.659.329a.941.941 0 0 0-.678.292c-.18.188-.281.442-.281.707 0 .264.101.518.281.706.18.187.424.292.678.292.429.009.853-.091 1.237-.29a2.69 2.69 0 0 0 .968-.854c.469-.665.662-1.507.662-2.32V4.999c0-.265-.101-.519-.281-.707A.941.941 0 0 0 14.565 4h-3.197Zm-1.345 3.628a.997.997 0 0 0-.353-.46.93.93 0 0 0-1.08 0 .997.997 0 0 0-.353.46L4.076 18.612a1.023 1.023 0 0 0-.001.776.966.966 0 0 0 .532.542.93.93 0 0 0 1.055-.249c.087-.097.154-.212.198-.337l1.022-2.695h4.492l1.02 2.695a.982.982 0 0 0 .51.55c.233.105.497.11.734.013a.975.975 0 0 0 .528-.531c.102-.243.106-.518.013-.764L10.023 7.628Zm.596 7.024h-2.98l1.491-3.935 1.489 3.935ZM17.762 4c.254 0 .498.105.678.292.18.188.281.442.281.707v2.992h.32c.254 0 .498.106.678.293.18.187.281.441.281.706 0 .265-.101.519-.281.706a.941.941 0 0 1-.678.292h-.32v4.994c0 .265-.101.519-.281.706a.938.938 0 0 1-.678.293.938.938 0 0 1-.678-.293 1.018 1.018 0 0 1-.281-.706V4.999c0-.265.101-.519.281-.707A.941.941 0 0 1 17.762 4Z"/></svg>
